src/icons/badge.svg

<svg width="24" height="24" viewBox="0 0 24 24" fill="none" xmlns="http://www.w3.org/2000/svg">
<path fill-rule="evenodd" clip-rule="evenodd" d="M12 15C13.3923 15 14.6517 14.4309 15.5583 13.5127C16.4497 12.6097 17 11.3691 17 10C17 7.23858 14.7614 5 12 5C11.6709 5 11.3492 5.0318 11.0378 5.09249C8.73677 5.54103 7 7.56769 7 10C7 12.7614 9.23858 15 12 15ZM12 13C13.0662 13 14.0025 12.4438 14.5345 11.6058C14.8293 11.1415 15 10.5907 15 10C15 8.36394 13.6904 7.03377 12.0622 7.00063C12.0415 7.00021 12.0208 7 12 7C10.3431 7 9 8.34315 9 10C9 11.6569 10.3431 13 12 13Z" fill="black"/>
<path fill-rule="evenodd" clip-rule="evenodd" d="M9.22971 1.7245C9.72741 0.74255 10.737 0 12.0004 0C13.2608 0 14.2687 0.741558 14.764 1.72279C15.7256 1.19996 16.9877 1.14603 18.0356 1.87259C19.0782 2.59537 19.4575 3.77005 19.3015 4.83884C20.3573 4.97593 21.4177 5.63806 21.8367 6.86499C22.2507 8.07687 21.8342 9.24391 21.0751 10C21.8342 10.7561 22.2506 11.9232 21.8367 13.1351C21.4177 14.362 20.3572 15.0241 19.3014 15.1612C19.4574 16.2299 19.0783 17.4045 18.0357 18.1273C17.6814 18.373 17.3026 18.5294 16.9193 18.6087L20 24H13L12 22.25L11 24H4L7.08207 18.6064C6.69596 18.5273 6.31441 18.3699 5.95774 18.1222C4.91734 17.3995 4.53849 16.227 4.69308 15.1596C3.63873 15.0201 2.58119 14.3574 2.16307 13.1319C1.7502 11.9217 2.1646 10.7566 2.92104 10C2.16459 9.24346 1.75019 8.07834 2.16305 6.86818C2.58117 5.6426 3.63876 4.97999 4.69308 4.84052C4.53845 3.77306 4.91731 2.60049 5.95776 1.87777C7.0053 1.15014 8.26743 1.20286 9.22971 1.7245ZM9.73178 19H9.16065L7.44636 22H9.83935L10.6965 20.5H13.3035L14.1606 22H16.5536L14.8394 19H14.2648C13.7145 19.6005 12.9255 20 12.0004 20C11.0737 20 10.2835 19.6005 9.73178 19ZM10.9252 2.8581L10.8913 2.98656C10.8026 3.32261 10.5972 3.59479 10.3321 3.778C10.2951 3.80357 10.257 3.82741 10.2178 3.84945C9.73701 4.11993 9.10414 4.11908 8.60512 3.72078L8.44982 3.59683C8.05635 3.2828 7.50451 3.23825 7.09806 3.52057C6.67903 3.81164 6.54875 4.35611 6.74794 4.83245L6.79615 4.94772C7.16221 5.82312 6.50721 6.8992 5.41329 6.82932L5.18517 6.81474C4.67936 6.78243 4.2113 7.05655 4.05518 7.51416C3.89582 7.98126 4.11254 8.49259 4.55321 8.75807L4.67507 8.83148C5.5643 9.36718 5.56456 10.6329 4.67494 11.1686L4.55325 11.2419C4.11256 11.5074 3.89584 12.0188 4.05519 12.4859C4.21133 12.9435 4.67947 13.2176 5.18517 13.1853L5.41328 13.1707C6.50727 13.1008 7.16219 14.1771 6.7961 15.0524L6.74791 15.1676C6.54879 15.644 6.67915 16.1884 7.09816 16.4794C7.50449 16.7617 8.05637 16.7171 8.44988 16.4032L8.60514 16.2792C9.43616 15.6159 10.6383 16.0548 10.8913 17.0134L10.9252 17.1419C11.0557 17.6365 11.4871 18 12.0004 18C12.5088 18 12.9361 17.6399 13.0654 17.1503L13.1015 17.0134C13.3545 16.0546 14.5567 15.616 15.3876 16.2792L15.5477 16.407C15.9404 16.7204 16.4911 16.7649 16.8968 16.4835C16.962 16.4384 17.0202 16.3871 17.0712 16.3308C17.3483 16.0256 17.4153 15.5751 17.2472 15.173L17.1977 15.0549C16.8315 14.1783 17.4874 13.101 18.5828 13.1709L18.8177 13.1859C19.3222 13.2182 19.789 12.9447 19.9448 12.4885C20.104 12.0224 19.8879 11.512 19.4482 11.2472L19.3224 11.1714C18.4308 10.6344 18.431 9.36568 19.3224 8.82867L19.4482 8.75286C19.888 8.48793 20.104 7.97758 19.9448 7.51155C19.789 7.05525 19.3222 6.78186 18.8177 6.8141L18.5827 6.82911C17.4874 6.89908 16.8317 5.82103 17.198 4.94439L17.2472 4.82685C17.4463 4.35093 17.3157 3.80687 16.8967 3.51637C16.4909 3.23501 15.9403 3.27972 15.5477 3.59305L15.3875 3.72092C14.5568 4.38382 13.3547 3.9453 13.1015 2.98657L13.0653 2.84932C12.9361 2.3597 12.5088 2 12.0004 2C11.4871 2 11.0558 2.36354 10.9252 2.8581Z" fill="black"/>
</svg>

<svg xmlns="http://www.w3.org/2000/svg" width="24" height="24" fill="none"><path fill="currentColor" fill-rule="evenodd" d="M12 15c1.392 0 2.652-.57 3.558-1.487A5 5 0 1 0 12 15m0-2a3 3 0 0 0 3-3 3 3 0 1 0-3 3" clip-rule="evenodd"/><path fill="currentColor" fill-rule="evenodd" d="M9.23 1.725C9.727.742 10.737 0 12 0c1.26 0 2.269.742 2.764 1.723.962-.523 2.224-.577 3.272.15 1.042.722 1.421 1.897 1.265 2.966 1.056.137 2.117.8 2.536 2.026.414 1.212-.003 2.379-.762 3.135.76.756 1.176 1.923.762 3.135-.42 1.227-1.48 1.89-2.536 2.026.156 1.069-.223 2.243-1.265 2.966a3 3 0 0 1-1.117.482L20 24h-7l-1-1.75L11 24H4l3.082-5.394a3 3 0 0 1-1.124-.484c-1.04-.723-1.42-1.895-1.265-2.962-1.054-.14-2.112-.803-2.53-2.028-.413-1.21.002-2.375.758-3.132-.756-.757-1.17-1.922-.758-3.132.418-1.225 1.476-1.888 2.53-2.027-.155-1.068.224-2.24 1.265-2.963 1.047-.728 2.31-.675 3.272-.153M9.732 19H9.16l-1.715 3H9.84l.857-1.5h2.608l.857 1.5h2.393l-1.715-3h-.574c-.55.6-1.34 1-2.265 1-.926 0-1.716-.4-2.268-1m1.193-16.142-.034.129a1.4 1.4 0 0 1-.673.862c-.481.27-1.114.27-1.613-.128l-.155-.124c-.394-.314-.945-.359-1.352-.076-.419.29-.55.835-.35 1.311l.048.116a1.372 1.372 0 0 1-1.383 1.881l-.228-.014c-.506-.033-.974.242-1.13.7-.16.466.058.978.498 1.243l.122.073c.89.536.89 1.802 0 2.338l-.122.073c-.44.265-.657.777-.498 1.244.156.457.624.732 1.13.7l.228-.015a1.372 1.372 0 0 1 1.383 1.881l-.048.116c-.2.476-.069 1.02.35 1.311.406.283.958.238 1.352-.076l.155-.124c.831-.663 2.033-.224 2.286.734l.034.129c.13.495.562.858 1.075.858.509 0 .936-.36 1.065-.85l.037-.137c.252-.958 1.455-1.397 2.286-.734l.16.128c.392.313.943.358 1.349.076a1 1 0 0 0 .174-.152 1.09 1.09 0 0 0 .176-1.158l-.05-.118a1.374 1.374 0 0 1 1.386-1.884l.235.015c.504.032.971-.241 1.127-.697.159-.467-.057-.977-.497-1.242l-.126-.076a1.36 1.36 0 0 1 0-2.342l.126-.076c.44-.265.656-.775.497-1.241-.156-.457-.623-.73-1.127-.698l-.235.015a1.374 1.374 0 0 1-1.385-1.885l.05-.117c.198-.476.068-1.02-.351-1.31-.406-.282-.957-.237-1.35.076l-.16.128c-.83.663-2.032.224-2.286-.734l-.036-.138C12.936 2.36 12.51 2 12 2c-.513 0-.944.364-1.075.858" clip-rule="evenodd"/></svg>
